X:310
T: Peter Walsh's
M: 6/8
L: 1/8
S: B.Flaherty
Z: B.Black
R: jig
K: G
B/c/ | d2 e dBB | dBA GED | EGE DB,D | DED GED |
d2 e dBB | dBA GED | EGE DB,D | DED G2 :|
G/A/ | BdB dcd | edB AGA | B2 d dcd | edB A2 A |
BdB dcd | edB AFD | E2 E DB,D | DED G2 :|
